packages/foundations/assets/icons/functional/images/logos/s_bahn_32_inverted.svg

<svg xmlns="http://www.w3.org/2000/svg" width="32" height="32" fill="none"><g clip-path="url(#a)"><path fill="#1A1C1F" fill-rule="evenodd" d="M22.317 12.01c-1.65-1.84-4.133-3.458-7.046-3.458-1.648 0-2.59.909-2.59 1.973 0 4.477 10.77 1.33 10.77 8.688 0 2.971-2.784 6.43-7.472 6.43-2.613 0-5.633-1.22-7.28-2.75v-3.857c1.562 2.328 4.41 4.123 7.28 4.123 1.756 0 3.168-1.04 3.168-2.15 0-4.189-10.598-1.595-10.598-8.822 0-3.79 3.575-5.83 6.787-5.83 2.677 0 5.075.91 6.98 2.44z" clip-rule="evenodd"/></g><defs><clipPath id="a"><path fill="#fff" d="M0 0h32v32H0z"/></clipPath></defs></svg>

<svg width="32" height="32" viewBox="0 0 32 32" fill="none" xmlns="http://www.w3.org/2000/svg">
<g clip-path="url(#clip0_2212_4619)">
<path fill-rule="evenodd" clip-rule="evenodd" d="M22.317 12.01C20.667 10.17 18.184 8.552 15.271 8.552C13.623 8.552 12.681 9.461 12.681 10.525C12.681 15.002 23.451 11.855 23.451 19.213C23.451 22.184 20.667 25.643 15.979 25.643C13.366 25.643 10.346 24.423 8.69901 22.893V19.036C10.261 21.364 13.109 23.159 15.979 23.159C17.735 23.159 19.147 22.119 19.147 21.009C19.147 16.82 8.54901 19.414 8.54901 12.187C8.54901 8.397 12.124 6.357 15.336 6.357C18.013 6.357 20.411 7.267 22.316 8.797L22.317 12.01Z" fill="#1A1C1F"/>
</g>
<defs>
<clipPath id="clip0_2212_4619">
<rect width="32" height="32" fill="white"/>
</clipPath>
</defs>
</svg>
